X:10340
T:Marijean - bourree
C:Jean Blanchard
N:abc transcription Simon Wascher
N:if you find an error in this transcription please inform simon.wascher@chello.at
M:3/8
L:1/16
K:Dm
d2^c2A2|=c2=B2G2|_B2A2G2|^F2D2FA|
d2^c2A2|=c2=B2G2|_B2A2^F2|G6:|
|:B2A2G2|^F2DEFE|^FGFGAB|A2G4|
B2A2G2|^F2DEFE|^FGFGAF|G6:|
